X: 24029
T: Lomonach Cross
R: reel
M: 4/4
K: Edorian
BE~E2 BFAF|D2FA DAFA|BEEe efge|dBAd BEE2|
BE~E2 BFAF|DAFA DAFA|Be~e2 efge|dBAd BEE2||
e2e^d (3efg fe|defa gfed|(3Bcd ef gfge|dBAd BEe^d|
e2e^d (3efg fe|defg a2ga|b2ba fgaf|edef gfed||

